!!!OTL: WANN KOMMT DIE FROHE STUNDE
!!!ARE: Europa, Mitteleuropa, Deutschland, Uckermark
!!!SCT: E0641
!!!YEM: Copyright 1995, estate of Helmut Schaffrath.
**kern
*ICvox
*Ivox
*M4/4
*k[]
*C:
{4g
=1
4.e
8g
8g
8e
8a
8g
=2
8g
8f
4f
4r}
{8d
8e
=3
4.f
8d
4.g
8f
=4
4f
4e
4r}
{4g
=5
4.cc
8g
4.ee
8cc
=6
8cc
8a
4a
4r}
{4a
=7
8g
8cc
8e
8g
8g
8f
8d
8B
=8
2c
4r}
==
!!!AGN: Liebes - Lied
!!!ONB: ESAC (Essen Associative Code) Database: ERK2
!!!AMT: simple quadruple
!!!AIN: vox
!!!EED: Helmut Schaffrath
!!!EEV: 1.0
*-
